images/brands/mui.svg

<svg fill="none" height="180" viewBox="0 0 520 180" width="520" xmlns="http://www.w3.org/2000/svg" xmlns:xlink="http://www.w3.org/1999/xlink"><clipPath id="a"><path d="m97 52h325v100h-325z"/></clipPath><g clip-path="url(#a)"><path d="m129.194 81.8055-30.1108-17.5c-.2125-.1227-.4538-.1869-.6993-.1861s-.4863.0667-.6981.1909c-.2117.1242-.3867.3023-.5072.5162-.1205.2138-.1822.4558-.1787.7013v48.6942c0 .5.2778.945.6944 1.195l11.2497 6.611c.211.121.45.185.693.186.243 0 .482-.063.693-.184s.386-.295.508-.505c.123-.21.188-.449.19-.692v-31.7775c.001-.0967.028-.1914.077-.2746.05-.0833.12-.1521.204-.1998.084-.0478.18-.0726.276-.0722.097.0003.192.026.276.0744l17.361 9.9445c.847.4833 1.806.7353 2.782.7304.975-.0049 1.932-.2664 2.774-.7582l16.944-9.9167c.084-.0484.179-.0741.276-.0744.096-.0004.192.0244.276.0722.084.0477.154.1165.204.1998.049.0832.076.1779.077.2746v15.5555c-.002.475-.125.941-.359 1.354-.233.414-.568.76-.974 1.007l-17.444 10.722c-.205.125-.374.301-.491.51s-.177.445-.176.685v15.667c0 .5.25.944.639 1.194l22.861 14.444c.872.55 1.879.846 2.909.855 1.03.01 2.042-.267 2.924-.799l29.056-17.222c.833-.494 1.523-1.198 2-2.041.478-.843.727-1.796.722-2.765v-30.0276c.002-.2472-.063-.4903-.187-.7043-.124-.2139-.303-.3909-.518-.5126s-.459-.1839-.706-.1799-.489.0738-.7.2024l-9.194 5.556c-.817.49-1.493 1.182-1.965 2.009-.472.826-.723 1.761-.73 2.713v15.083c-.001.242-.066.48-.188.69-.122.209-.296.383-.506.505l-17.195 10.138c-.86.505-1.84.768-2.837.763s-1.974-.278-2.829-.79l-9.25-5.556c-.198-.121-.363-.29-.479-.491s-.179-.428-.185-.66c-.005-.233.047-.462.154-.669.106-.206.262-.383.454-.513l16.722-11.028c.768-.506 1.399-1.195 1.835-2.004.437-.81.665-1.715.665-2.635v-44.5832c-.001-.2431-.066-.4816-.189-.6916-.122-.2099-.298-.3841-.509-.505s-.45-.1843-.693-.184c-.243.0004-.482.0646-.692.1861l-29.722 17.4722c-.848.4928-1.811.7524-2.792.7524s-1.944-.2596-2.792-.7524z" fill="#007fff"/><path d="m194.222 66.8888v9.5c.002.9442-.237 1.8732-.694 2.6994-.456.8263-1.116 1.5225-1.917 2.0229l-9.167 5.6944c-.211.1286-.452.1984-.7.2024-.247.0039-.491-.0582-.706-.1799-.215-.1218-.394-.2987-.518-.5127-.124-.2139-.188-.457-.187-.7042v-9.9445c.001-.9742.258-1.9311.746-2.7745.488-.8435 1.188-1.5439 2.032-2.031l9.028-5.1667c.21-.1216.449-.1857.692-.1861s.482.0631.693.184.386.295.509.505c.122.21.188.4484.189.6915z" fill="#007fff"/><path d="m236.944 125.611v-50.5555h12.5l21 29.1665-9.222-.055 21.056-29.1115h12.333v50.5555h-13.722v-13.944c0-4.139.083-7.945.278-11.389.194-3.528.583-7.0836 1.166-10.6391l1.445 4.4722-15.667 20.2219h-4.778l-15.611-20.4163 1.611-4.2778c.556 3.4722.945 6.9444 1.139 10.4171.195 3.444.278 7.333.278 11.611v13.944h-13.778zm96.889.445c-4.916 0-9.278-.973-13.055-2.889-3.632-1.805-6.691-4.585-8.834-8.028-2.09-3.518-3.158-7.548-3.083-11.639v-28.4445h14.444v28.0275c0 2.111.445 3.973 1.362 5.556.916 1.583 2.166 2.805 3.75 3.694 1.667.879 3.532 1.319 5.416 1.278 2.111 0 4-.417 5.639-1.278 1.667-.889 2.972-2.111 3.889-3.694.972-1.583 1.444-3.445 1.444-5.556v-28.0275h14.028v28.4445c.064 4.07-1.024 8.076-3.137 11.555-2.113 3.48-5.166 6.291-8.807 8.112-3.695 1.916-8.056 2.889-13.056 2.889zm40.028-.445v-12h11.639v-26.5555h-11.639v-12h37.5v12h-11.583v26.5555h11.555v12h-37.5z" fill="#000"/></g></svg>

<svg width="520" height="180" viewBox="0 0 520 180" fill="none" xmlns="http://www.w3.org/2000/svg">
<g clip-path="url(#clip0_248_4903)">
<path d="M129.194 81.8055L99.0832 64.3055C98.8707 64.1828 98.6294 64.1186 98.3839 64.1194C98.1384 64.1202 97.8976 64.1861 97.6858 64.3103C97.4741 64.4345 97.2991 64.6126 97.1786 64.8265C97.0581 65.0403 96.9964 65.2823 96.9999 65.5278V114.222C96.9999 114.722 97.2777 115.167 97.6943 115.417L108.944 122.028C109.155 122.149 109.394 122.213 109.637 122.214C109.88 122.214 110.119 122.151 110.33 122.03C110.541 121.909 110.716 121.735 110.838 121.525C110.961 121.315 111.026 121.076 111.028 120.833V89.0555C111.029 88.9588 111.056 88.8641 111.105 88.7809C111.155 88.6976 111.225 88.6288 111.309 88.5811C111.393 88.5333 111.489 88.5085 111.585 88.5089C111.682 88.5092 111.777 88.5349 111.861 88.5833L129.222 98.5278C130.069 99.0111 131.028 99.2631 132.004 99.2582C132.979 99.2533 133.936 98.9918 134.778 98.5L151.722 88.5833C151.806 88.5349 151.901 88.5092 151.998 88.5089C152.094 88.5085 152.19 88.5333 152.274 88.5811C152.358 88.6288 152.428 88.6976 152.478 88.7809C152.527 88.8641 152.554 88.9588 152.555 89.0555V104.611C152.553 105.086 152.43 105.552 152.196 105.965C151.963 106.379 151.628 106.725 151.222 106.972L133.778 117.694C133.573 117.819 133.404 117.995 133.287 118.204C133.17 118.413 133.11 118.649 133.111 118.889V134.556C133.111 135.056 133.361 135.5 133.75 135.75L156.611 150.194C157.483 150.744 158.49 151.04 159.52 151.049C160.55 151.059 161.562 150.782 162.444 150.25L191.5 133.028C192.333 132.534 193.023 131.83 193.5 130.987C193.978 130.144 194.227 129.191 194.222 128.222V98.1944C194.224 97.9472 194.159 97.7041 194.035 97.4901C193.911 97.2762 193.732 97.0992 193.517 96.9775C193.302 96.8558 193.058 96.7936 192.811 96.7976C192.564 96.8016 192.322 96.8714 192.111 97L182.917 102.556C182.1 103.046 181.424 103.738 180.952 104.565C180.48 105.391 180.229 106.326 180.222 107.278V122.361C180.221 122.603 180.156 122.841 180.034 123.051C179.912 123.26 179.738 123.434 179.528 123.556L162.333 133.694C161.473 134.199 160.493 134.462 159.496 134.457C158.499 134.452 157.522 134.179 156.667 133.667L147.417 128.111C147.219 127.99 147.054 127.821 146.938 127.62C146.822 127.419 146.759 127.192 146.753 126.96C146.748 126.727 146.8 126.498 146.907 126.291C147.013 126.085 147.169 125.908 147.361 125.778L164.083 114.75C164.851 114.244 165.482 113.555 165.918 112.746C166.355 111.936 166.583 111.031 166.583 110.111V65.5278C166.582 65.2847 166.517 65.0462 166.394 64.8362C166.272 64.6263 166.096 64.4521 165.885 64.3312C165.674 64.2103 165.435 64.1469 165.192 64.1472C164.949 64.1476 164.71 64.2118 164.5 64.3333L134.778 81.8055C133.93 82.2983 132.967 82.5579 131.986 82.5579C131.005 82.5579 130.042 82.2983 129.194 81.8055Z" fill="#007FFF"/>
<path d="M194.222 66.8888V76.3888C194.224 77.333 193.985 78.262 193.528 79.0882C193.072 79.9145 192.412 80.6107 191.611 81.1111L182.444 86.8055C182.233 86.9341 181.992 87.0039 181.744 87.0079C181.497 87.0118 181.253 86.9497 181.038 86.828C180.823 86.7062 180.644 86.5293 180.52 86.3153C180.396 86.1014 180.332 85.8583 180.333 85.6111V75.6666C180.334 74.6924 180.591 73.7355 181.079 72.8921C181.567 72.0486 182.267 71.3482 183.111 70.8611L192.139 65.6944C192.349 65.5728 192.588 65.5087 192.831 65.5083C193.074 65.5079 193.313 65.5714 193.524 65.6923C193.735 65.8132 193.91 65.9873 194.033 66.1973C194.155 66.4073 194.221 66.6457 194.222 66.8888Z" fill="#007FFF"/>
<path d="M236.944 125.611V75.0555H249.444L270.444 104.222L261.222 104.167L282.278 75.0555H294.611V125.611H280.889V111.667C280.889 107.528 280.972 103.722 281.167 100.278C281.361 96.75 281.75 93.1944 282.333 89.6389L283.778 94.1111L268.111 114.333H263.333L247.722 93.9167L249.333 89.6389C249.889 93.1111 250.278 96.5833 250.472 100.056C250.667 103.5 250.75 107.389 250.75 111.667V125.611H236.972H236.944ZM333.833 126.056C328.917 126.056 324.555 125.083 320.778 123.167C317.146 121.362 314.087 118.582 311.944 115.139C309.854 111.621 308.786 107.591 308.861 103.5V75.0555H323.305V103.083C323.305 105.194 323.75 107.056 324.667 108.639C325.583 110.222 326.833 111.444 328.417 112.333C330.084 113.212 331.949 113.652 333.833 113.611C335.944 113.611 337.833 113.194 339.472 112.333C341.139 111.444 342.444 110.222 343.361 108.639C344.333 107.056 344.805 105.194 344.805 103.083V75.0555H358.833V103.5C358.897 107.57 357.809 111.576 355.696 115.055C353.583 118.535 350.53 121.346 346.889 123.167C343.194 125.083 338.833 126.056 333.833 126.056ZM373.861 125.611V113.611H385.5V87.0555H373.861V75.0555H411.361V87.0555H399.778V113.611H411.333V125.611H373.833H373.861Z" fill="black"/>
</g>
<defs>
<clipPath id="clip0_248_4903">
<rect width="325" height="100" fill="white" transform="translate(97 52)"/>
</clipPath>
</defs>
</svg>
